X:230
T:Untitled. Le4.230
L:1/4
B:L.Leadley MS#4 c1850
Z:vmp.Mike Hicken 2016 www.village-music-project.org.uk
N: * 1st and 2nd time bars have been added to give the correct repeats.
Q:1/4=120
M:3/4
K:A
EA>B|cdc|cBF|B3|EG>A|BcB|BAF|E3|
EA>B|cdc|cBF|B3|EG>A|Bc>B|A3|1 Azz :|2 "*"Az||
|:E|c!/!c2|d!/!d2|^d !/!d2|e3|e^d=d|c3|cBA|E3|c !/!c2|
d!/!d2|^d !/!d2|e3|ag=g|f2e|c2B|A2 :|

